X:1
T:Take Up Thy Cross
T:Alfred Henry Ackley, 1922
T:Take Up Thy Cross
T:Public Domain
T:Public Domain
T:Public Domain
C:Alfred Henry Ackley, 1922
Z:Public Domain
%%score 1 ( 2 3 )
L:1/8
M:4/4
K:F
V:1 treble 
V:2 bass 
V:3 bass 
V:1
 C2 | C3 C DCB,A, x | C2 =B,2 _B,3 C | E3 D CB,A,B, | C6 A,2 | C3 C DCB,A, x | C2 =B,2 _B,3 B, x | %7
w: 1.~I|walked one day a- long a|count- ry road, And|there a strang- er jour- neyed,|too, Bent|low be- neath the bur- den|of His load: It|
w: 2.~I|cried, “Lord Je- sus,” and He|spoke my name; I|saw His hands all bruised and|torn; I|stooped to kiss a- way the|marks of shame, The|
w: 3.~“O|let me bear Thy cross, dear|Lord,” I cried, And|lo, a cross for me ap-|peared, The|one for- got- ten I had|cast a- side, The|
w: 4.~My|cross I’ll car- ry till the|crown ap- pears, The|way I jour- ney soon will|end Where|God Him- self shall wipe a-|way all tears, And|
 E3 D CB,B,B, x | A,6 ||"^Refrain" _E2 | D3 D DDD_D | C6 [CF]2 | [A,A]3 [B,B] [A,A]C=B,B, | %13
w: was a cross, a cross I|knew.|||||
w: shame for me that He had|borne.|||||
w: one, so long, that I had|feared.|||||
w: friend hold fel- low- ship with|friend.|||||
 B,6 (B,C) | C3 B, A,B,C_E | _E2 D2 D2 _D2 | C3 D B,3 C | A,6 |] %18
w: |||||
w: |||||
w: |||||
w: |||||
V:2
 C,2 | (F,,C,) z A, B,A,G,F, x | [C,A,]2 [D,_A,]2 E,2 z G, | C,2 z B, A,G,[D,F,][C,G,] | %4
w: ~|~ * ~ ~ ~ ~ ~|* ~ ~ ~|~ ~ ~ ~ ~ ~|
 [F,,F,A,]6 C,2 | (F,,C,) z A, B,A,G,F, x | [C,A,]2 [D,_A,]2 E,2 z G, x | C,2 z B, A,G,D,E, x | %8
w: ~ ~|~ * ~ ~ ~ ~ ~|* ~ ~ ~|* ~ ~ ~ ~ ~|
 [F,,F,]6 || (F,F,,) | B,3 B, B,B,F,G, | (F,,C,D,C, [F,,F,]2) A,2 | C3 D CA,[D,G,][G,,F,] | %13
w: cross|and *|low Me.” I hear the bless-|Sav- * * * * ior|How can I make a less-|
 (C,2 D,2 E,2) C,2 | F,2 (z G,) F,G,[F,A,][A,,C] | C2 B,2 F,2 G,2 | A,3 B, G,3 A, | [F,,C,F,]6 |] %18
w: ri- * * fice,|Je- * sus gave His all?||||
V:3
 x2 | A,3 F,6 | x4 G,3 x | C3 (G,2 C,2) x | x8 | A,3 F,6 | x4 G,3 C,2 | C3 (G,2 C,2) C,,2 | x6 || %9
w: |~ ~|~|~ ~ *||~ ~|~ ~|“Take up * thy||
 F,2 | B,,8 | A,6 x2 | F,4 F,2 x2 | G,6 x2 | A,3 C,2 x3 | [B,,F,]4 C,4 | C,4 C,4 | x6 |] %18
w: fol-|èd|call;|er sac-|When|||||

